X: 39
M:4/4
L:1/8
Q:90
K:Bb
"Andante"GABc d3 c|Bcd=e f2 ef|gddc B2 AG|A2 GF D2 z2|
d>edB cccA|B>cBG AGFD|B3 G A3 F|G>FD^F G2 z2||

